src/images_karasa_jaga_svg/cmd/32/groupbox.svg

<svg height="32" viewBox="0 0 32 32" width="32" xmlns="http://www.w3.org/2000/svg"><g transform="scale(.25)"><path d="m13.818359 20c-3.223227 0-5.818359 2.595132-5.818359 5.818359v96.363281c0 3.22323 2.595132 5.81836 5.818359 5.81836h104.363281c3.22323 0 5.81836-2.59513 5.81836-5.81836v-96.363281c0-3.223227-2.59513-5.818359-5.81836-5.818359zm-1.818359 4h108v100h-108z" fill="#818181"/><path d="m22.519531.38867188a3.7643337 3.7643337 0 0 0 -3.324219 5.52734372l6.738282 12.6972654-7 12.904297a3.7643337 3.7643337 0 0 0 3.308594 5.558594h6.023437a3.7643337 3.7643337 0 0 0 3.398437-2.146484l1.425782-2.998047 1.439453 3.005859a3.7643337 3.7643337 0 0 0 3.394531 2.138672h6.16211a3.7643337 3.7643337 0 0 0 3.30664-5.5625l-7.121094-13.080078 3.990235-7.316406 5.572265 12.21289v9.982422a3.7643337 3.7643337 0 0 0 3.763672 3.763672h5.191406a3.7643337 3.7643337 0 0 0 3.763672-3.763672v-10.017578l7.683594-17.638672a3.7643337 3.7643337 0 0 0 -3.451172-5.26757812h-5.814453a3.7643337 3.7643337 0 0 0 -3.525391 2.44531252l-1.408203 3.7695312-1.542968-3.8515625a3.7643337 3.7643337 0 0 0 -3.494141-2.36328122h-5.779297a3.7643337 3.7643337 0 0 0 -.732422.07226562 3.7643337 3.7643337 0 0 0 -.714843-.07226562h-6.023438a3.7643337 3.7643337 0 0 0 -3.388672 2.12695312l-1.171875 2.4238281-1.089844-2.3632812a3.7643337 3.7643337 0 0 0 -3.417968-2.18750002z" fill="#fff" fill-opacity=".875" transform="matrix(.81529646 0 0 .81529646 8.026674 5.007733)"/><text style="font-size:30.337677;font-family:sans-serif;letter-spacing:0;word-spacing:0;fill:#565656;stroke-width:.758442" transform="scale(.93026518 1.0749623)" x="27.454552" y="29.923891"><tspan fill="#565656" font-family="FreeSans" font-weight="600" stroke-width=".758442" x="27.454552" y="29.923891">XY</tspan></text></g></svg>

<?xml version="1.0" encoding="UTF-8" standalone="no"?>
<!-- Created with Inkscape (http://www.inkscape.org/) -->

<svg
   xmlns:dc="http://purl.org/dc/elements/1.1/"
   xmlns:cc="http://creativecommons.org/ns#"
   xmlns:rdf="http://www.w3.org/1999/02/22-rdf-syntax-ns#"
   xmlns:svg="http://www.w3.org/2000/svg"
   xmlns="http://www.w3.org/2000/svg"
   xmlns:sodipodi="http://sodipodi.sourceforge.net/DTD/sodipodi-0.dtd"
   xmlns:inkscape="http://www.inkscape.org/namespaces/inkscape"
   version="1.1"
   id="svg2"
   width="128"
   height="128"
   viewBox="0 0 128 128"
   sodipodi:docname="groupbox.svg"
   inkscape:version="0.92.3 (unknown)"
   inkscape:export-filename="/home/rizmut/Dokumen/Rizmut/Github/libreoffice-style-karasa-jaga/build/images_karasa_jaga/cmd/32/groupbox.png"
   inkscape:export-xdpi="24"
   inkscape:export-ydpi="24">
  <metadata
     id="metadata8">
    <rdf:RDF>
      <cc:Work
         rdf:about="">
        <dc:format>image/svg+xml</dc:format>
        <dc:type
           rdf:resource="http://purl.org/dc/dcmitype/StillImage" />
        <dc:title></dc:title>
      </cc:Work>
    </rdf:RDF>
  </metadata>
  <defs
     id="defs6" />
  <sodipodi:namedview
     pagecolor="#ffffff"
     bordercolor="#666666"
     borderopacity="1"
     objecttolerance="10"
     gridtolerance="10"
     guidetolerance="10"
     inkscape:pageopacity="0"
     inkscape:pageshadow="2"
     inkscape:window-width="1366"
     inkscape:window-height="706"
     id="namedview4"
     showgrid="true"
     inkscape:snap-page="true"
     inkscape:snap-global="true"
     inkscape:zoom="1.7320077"
     inkscape:cx="-18.45148"
     inkscape:cy="61.336995"
     inkscape:window-x="0"
     inkscape:window-y="0"
     inkscape:window-maximized="1"
     inkscape:current-layer="svg2">
    <inkscape:grid
       type="xygrid"
       id="grid819"
       spacingx="4"
       spacingy="4"
       empspacing="1" />
  </sodipodi:namedview>
  <path
     style="opacity:1;fill:#818181;fill-opacity:1;stroke:none;stroke-width:2.17700768;stroke-linecap:round;stroke-linejoin:round;stroke-miterlimit:4;stroke-dasharray:6.53102303, 6.53102303;stroke-dashoffset:0;stroke-opacity:1"
     d="M 13.818359,20 C 10.595132,20 8,22.595132 8,25.818359 V 122.18164 C 8,125.40487 10.595132,128 13.818359,128 H 118.18164 C 121.40487,128 124,125.40487 124,122.18164 V 25.818359 C 124,22.595132 121.40487,20 118.18164,20 Z M 12,24 H 120 V 124 H 12 Z"
     id="rect821"
     inkscape:connector-curvature="0"
     sodipodi:nodetypes="sssssssssccccc" />
  <path
     sodipodi:type="inkscape:offset"
     inkscape:radius="3.7639573"
     inkscape:original="M 22.519531 4.1523438 L 30.205078 18.632812 L 22.242188 33.3125 L 28.265625 33.3125 L 33.078125 23.191406 L 37.923828 33.3125 L 44.085938 33.3125 L 35.984375 18.431641 L 43.773438 4.1523438 L 37.75 4.1523438 L 33.111328 13.751953 L 28.681641 4.1523438 L 22.519531 4.1523438 z M 45.220703 4.1523438 L 53.597656 22.511719 L 53.597656 33.3125 L 58.789062 33.3125 L 58.789062 22.511719 L 66.785156 4.1523438 L 60.970703 4.1523438 L 56.158203 17.03125 L 51 4.1523438 L 45.220703 4.1523438 z "
     style="font-style:normal;font-variant:normal;font-weight:600;font-stretch:normal;font-size:medium;line-height:125%;font-family:FreeSans;-inkscape-font-specification:'FreeSans Semi-Bold';letter-spacing:0px;word-spacing:0px;fill:#ffffff;fill-opacity:0.875;stroke:none;stroke-width:0.93026519px;stroke-linecap:butt;stroke-linejoin:miter;stroke-opacity:1"
     id="path3923"
     d="M 22.519531,0.38867188 A 3.7643337,3.7643337 0 0 0 19.195312,5.9160156 l 6.738282,12.6972654 -7,12.904297 a 3.7643337,3.7643337 0 0 0 3.308594,5.558594 h 6.023437 a 3.7643337,3.7643337 0 0 0 3.398437,-2.146484 l 1.425782,-2.998047 1.439453,3.005859 a 3.7643337,3.7643337 0 0 0 3.394531,2.138672 h 6.16211 a 3.7643337,3.7643337 0 0 0 3.30664,-5.5625 l -7.121094,-13.080078 3.990235,-7.316406 5.572265,12.21289 V 33.3125 a 3.7643337,3.7643337 0 0 0 3.763672,3.763672 h 5.191406 A 3.7643337,3.7643337 0 0 0 62.552734,33.3125 V 23.294922 L 70.236328,5.65625 A 3.7643337,3.7643337 0 0 0 66.785156,0.38867188 H 60.970703 A 3.7643337,3.7643337 0 0 0 57.445312,2.8339844 L 56.037109,6.6035156 54.494141,2.7519531 A 3.7643337,3.7643337 0 0 0 51,0.38867188 H 45.220703 A 3.7643337,3.7643337 0 0 0 44.488281,0.4609375 3.7643337,3.7643337 0 0 0 43.773438,0.38867188 H 37.75 A 3.7643337,3.7643337 0 0 0 34.361328,2.515625 L 33.189453,4.9394531 32.099609,2.5761719 A 3.7643337,3.7643337 0 0 0 28.681641,0.38867188 Z"
     transform="matrix(0.81529646,0,0,0.81529646,8.0266743,5.0077326)" />
  <text
     xml:space="preserve"
     style="font-style:normal;font-weight:normal;font-size:30.337677px;line-height:125%;font-family:sans-serif;letter-spacing:0px;word-spacing:0px;fill:#565656;fill-opacity:1;stroke:none;stroke-width:0.75844193px;stroke-linecap:butt;stroke-linejoin:miter;stroke-opacity:1"
     x="27.454552"
     y="29.923891"
     id="text3917"
     transform="scale(0.93026518,1.0749623)"><tspan
       sodipodi:role="line"
       id="tspan3915"
       x="27.454552"
       y="29.923891"
       style="font-style:normal;font-variant:normal;font-weight:600;font-stretch:normal;font-family:FreeSans;-inkscape-font-specification:'FreeSans Semi-Bold';fill:#565656;fill-opacity:1;stroke-width:0.75844193px">XY</tspan></text>
</svg>
